; HEADER_BLOCK_START
; generated by OrcaSlicer 2.3.0 on 2025-07-04 at 09:34:40
; total layer number: 6
;_GP_TOTAL_LAYER_NUMBER_PLACEHOLDER
; filament_density: 1.05,1.04,1.05,1.04
; filament_diameter: 1.75,1.75,1.75,1.75
; max_z_height: 1.50
; HEADER_BLOCK_END

; THUMBNAIL_BLOCK_START

;
; THUMBNAIL_BLOCK_END

; THUMBNAIL_BLOCK_START

;
; THUMBNAIL_BLOCK_END

; external perimeters extrusion width = 0.42mm
; perimeters extrusion width = 0.45mm
; infill extrusion width = 0.45mm
; solid infill extrusion width = 0.42mm
; top infill extrusion width = 0.42mm
; support material extrusion width = 0.42mm
; first layer extrusion width = 0.42mm

; external perimeters extrusion width = 0.42mm
; perimeters extrusion width = 0.45mm
; infill extrusion width = 0.45mm
; solid infill extrusion width = 0.42mm
; top infill extrusion width = 0.42mm
; support material extrusion width = 0.42mm
; first layer extrusion width = 0.42mm

; EXECUTABLE_BLOCK_START
M486 S0 A"XY.stl_id_0_copy_0"
M486 S-1
M201 X5000 Y5000 Z1500 E5000
M203 X9000 Y9000 Z720 E12000
M204 P5000 T5000 ; sets acceleration (P, T), mm/sec^2
M566 X498.00 Y498.00 Z60.00 E498.00 ; sets the jerk limits, mm/min
;TYPE:Custom
;extruder relative mode

M83

;Start Heating the bed and chamber

M140 S105; Set bed temp

M141 S80


;Perform calibration

if exists(global.print_start_setup) && global.print_start_setup > 0

       M190 P0 S105 ; wait for bed tem

       M98 P"/sys/procedures/prepare-for-calibration.g" S0

   if global.print_start_setup >= 1

       M98 P"/sys/procedures/prepare-for-calibration.g" S1

       M98 P"/sys/start-print-hvc.g"

   if global.print_start_setup >= 2

       M98 P"/sys/start-print-leveling.g"

       M98 P"/sys/start-print-mesh.g"


G29 S1

;Set zero as default temperature to disable all extruders

M568 P0 S0 R0 A2

M568 P1 S0 R0 A2

M568 P2 S0 R0 A2

M568 P3 S0 R0 A2
 


;Enable extruders if used in slicing process

if true

   M568 P0 S245 R0 A2

if true

   M568 P1 S230 R0 A2

if false

   M568 P2 S245 R0 A2

if false

   M568 P3 S230 R0 A2
 


M591 D0 S0

M591 D1 S0
 


;Handle filament management

if global.multi_material_mode == false

        ; Left Extruder

	if global.tray_0_state == 2

		; Do nothing

	elif global.tray_2_state == 2

		M563 P0 S"Left Extruder Spool 0" D0:3 H0 F0
 
		M567 P0 E1.0:1.0

		M563 P2 S"Left Extruder Spool 1" D0:2 H0 F0
 
		M567 P2 E1.0:1.0

		set global.drives_A_switched = true

		echo "Drives switched"
	elif global.tray_0_state == 1

		M1101 P0 S1

	elif global.tray_2_state == 1

                M98 P"/sys/machine-specific/go-to-cleaning-location.g"

                M98 P"/sys/machine-specific/clean.g"

		M1101 P2 S1

                M563 P0 S"Left Extruder Spool 0" D0:3 H0 F0
 
		M567 P0 E1.0:1.0

		M563 P2 S"Left Extruder Spool 1" D0:2 H0 F0
 
		M567 P2 E1.0:1.0

		set global.drives_A_switched = true

		echo "Drives switched"

        ;Right Extruder

	if global.tray_1_state == 2

	        ;Do nothing

	elif global.tray_3_state == 2

		M563 P1 S"Right Extruder Spool 0" D1:5 H1 F1
 
		M567 P1 E1.0:1.0

		M563 P3 S"Right Extruder Spool 1" D1:4 H1 F1
 
		M567 P3 E1.0:1.0

		set global.drives_B_switched = true

		echo "Drives switched"

	elif global.tray_1_state == 1

		M1101 P1 S1

	elif global.tray_3_state == 1

                M98 P"/sys/machine-specific/go-to-cleaning-location.g"

                M98 P"/sys/machine-specific/clean.g"

		M1101 P3 S1

                M563 P1 S"Right Extruder Spool 0" D1:5 H1 F1
 
		M567 P1 E1.0:1.0

		M563 P3 S"Right Extruder Spool 1" D1:4 H1 F1
 
		M567 P3 E1.0:1.0

		set global.drives_B_switched = true

		echo "Drives switched"


M591 D0 S1

M591 D1 S1


;Enable extruders if used in slicing process

if true

   M568 P0 S245 R0 A2

if true

   M568 P1 S230 R0 A2

if false

   M568 P2 S245 R0 A2

if false

   M568 P3 S230 R0 A2


;Home XY 

G28 XY
 


; Apply extruder z offset

M98 P"/sys/startup-z-offset.g"

M98 P"/sys/startup-xy-offset.g"

M98 P"/sys/procedures/copy-offsets.g"

M98 P"/sys/t0-zoffset.g"
M98 P"/sys/t1-zoffset.g"
 


;Configure Pressure advance

M572 D0 S0.068

M572 D1 S0.068

M572 D2 S0.068

M572 D3 S0.068
 


;Select initial tool

T1
 


;Absolute positioning

G90
 


;Go to (0,0) and start heating up tools

G1 X0 Y0 Z2 F2000

M190 S105 P0

M116 P1


G1 X10 Y-7 Z0.3 F1000.0 ;go outside print area

G92 E0.0
G1 Z0.2 E8 ;Purge Bubble

G10 S260 P0 ;preheat T0 time: 44s

G1 X360.0 E54.0  F1000.0 ;intro line

G92 E0.0


;Enable Drives in Closed Loop Mode

M569 P30.0 S0 D4

M569 P40.0 S1 D4

M569 P41.0 S1 D4
G90
G21
M83 ; use relative distances for extrusion
T1
; Filament gcode
;G10 R230 P1
G10 S230 P1 ; set nozzle temperature
M116 ; wait for temperature to be reached
M572 D0 S0.068; Override pressure advance value
M106 S0
;LAYER_CHANGE
;Z:0.2
;HEIGHT:0.2
;BEFORE_LAYER_CHANGE
;0.2
G92 E0

G1 E-.8 F1800
;AFTER_LAYER_CHANGE
;0.2
;_SET_FAN_SPEED_CHANGING_LAYER
M204 P400
M205 X8 Y8
M204 T400
G1 Z.6 F4800
G1 X220.299 Y220.299
G1 Z.6
G1 Z.2
G1 E.8 F1800
;TYPE:Skirt
;WIDTH:0.42
G1 F3000
G1 X220.823 Y219.775 E.02153
G1 X221.93 Y219.316 E.03479
G1 X266.438 Y219.316 E1.29224
G1 X267.545 Y219.775 E.03479
G1 X280.225 Y232.455 E.52064
G1 X280.684 Y233.562 E.03479
G1 X280.684 Y278.07 E1.29224
G1 X280.225 Y279.177 E.03479
G1 X279.177 Y280.225 E.04305
G1 X278.07 Y280.684 E.03479
G1 X260.701 Y280.684 E.50427
G1 X259.594 Y280.225 E.03479
G1 X219.775 Y240.406 E1.635
G1 X219.316 Y239.299 E.03479
G1 X219.316 Y221.93 E.50427
G1 X219.775 Y220.823 E.03479
G1 X220.271 Y220.327 E.02037
G1 X220.537 Y220.594 F4800
G1 F3000
G1 X221.09 Y220.041 E.02269
G1 X221.93 Y219.693 E.02641
G1 X266.438 Y219.693 E1.29224
G1 X267.279 Y220.041 E.02641
G1 X279.959 Y232.721 E.52064
G1 X280.307 Y233.562 E.02641
G1 X280.307 Y278.07 E1.29224
G1 X279.959 Y278.91 E.02641
G1 X278.91 Y279.959 E.04305
G1 X278.07 Y280.307 E.02641
G1 X260.701 Y280.307 E.50427
G1 X259.861 Y279.959 E.02641
G1 X220.041 Y240.139 E1.635
G1 X219.693 Y239.299 E.02641
G1 X219.693 Y221.93 E.50427
G1 X220.041 Y221.09 E.02641
G1 X220.509 Y220.622 E.0192
; printing object XY.stl id:0 copy 0
G1 E-.56 F1800
;WIPE_START
G1 F3000
G1 X221.09 Y220.041 E-.19715
G1 X221.255 Y219.973 E-.04285
;WIPE_END
M486 S0
G1 Z.6 F4800
G1 X267.487 Y221.93 Z.6
G1 Z.2
G1 E.8 F1800
;TYPE:Support
G1 F2400
G1 X267.487 Y232.513 E.30726
G1 X278.07 Y232.513 E.30726
G1 X279.118 Y233.562 E.04305
G1 X279.118 Y278.07 E1.29224
G1 X278.07 Y279.118 E.04305
G1 X260.701 Y279.118 E.50427
G1 X259.653 Y278.07 E.04305
G1 X259.653 Y240.347 E1.09523
G1 X221.93 Y240.347 E1.09523
G1 X220.882 Y239.299 E.04305
G1 X220.882 Y221.93 E.50427
G1 X221.93 Y220.882 E.04305
G1 X266.438 Y220.882 E1.29224
G1 X267.447 Y221.89 E.04141
G1 E-.56 F1800
;WIPE_START
G1 F2400
G1 X266.74 Y221.183 E-.24
;WIPE_END
G1 Z.6 F4800
G1 X278.49 Y278.457 Z.6
G1 Z.2
G1 E.8 F1800
G1 F2400
G1 X278.49 Y233.414 E1.30779
G1 X278.071 Y232.995 E.0172
G1 X278.071 Y278.636 E1.32515
G1 X277.929 Y278.779 E.00585
G1 X277.652 Y278.779 E.00803
G1 X277.652 Y232.853 E1.33343
G1 X277.234 Y232.853 E.01216
G1 X277.234 Y278.779 E1.33343
G1 X276.815 Y278.779 E.01216
G1 X276.815 Y232.853 E1.33343
G1 X276.396 Y232.853 E.01216
G1 X276.396 Y278.779 E1.33343
G1 X275.977 Y278.779 E.01216
G1 X275.977 Y232.853 E1.33343
G1 X275.558 Y232.853 E.01216
G1 X275.558 Y278.779 E1.33343
G1 X275.139 Y278.779 E.01216
G1 X275.139 Y232.853 E1.33343
G1 X274.72 Y232.853 E.01216
G1 X274.72 Y278.779 E1.33343
G1 X274.301 Y278.779 E.01216
G1 X274.301 Y232.853 E1.33343
G1 X273.882 Y232.853 E.01216
G1 X273.882 Y278.779 E1.33343
G1 X273.463 Y278.779 E.01216
G1 X273.463 Y232.853 E1.33343
G1 X273.044 Y232.853 E.01216
G1 X273.044 Y278.779 E1.33343
G1 X272.625 Y278.779 E.01216
G1 X272.625 Y232.853 E1.33343
G1 X272.206 Y232.853 E.01216
G1 X272.206 Y278.779 E1.33343
G1 X271.787 Y278.779 E.01216
G1 X271.787 Y232.853 E1.33343
G1 X271.368 Y232.853 E.01216
G1 X271.368 Y278.779 E1.33343
G1 X270.949 Y278.779 E.01216
G1 X270.949 Y232.853 E1.33343
G1 X270.53 Y232.853 E.01216
G1 X270.53 Y278.779 E1.33343
G1 X270.111 Y278.779 E.01216
G1 X270.111 Y232.853 E1.33343
G1 X269.692 Y232.853 E.01216
G1 X269.692 Y278.779 E1.33343
G1 X269.273 Y278.779 E.01216
G1 X269.273 Y232.853 E1.33343
G1 X268.854 Y232.853 E.01216
G1 X268.854 Y278.779 E1.33343
G1 X268.435 Y278.779 E.01216
G1 X268.435 Y232.853 E1.33343
G1 X268.016 Y232.853 E.01216
G1 X268.016 Y278.779 E1.33343
G1 X267.597 Y278.779 E.01216
G1 X267.597 Y232.853 E1.33343
G1 X267.178 Y232.853 E.01216
G1 X267.178 Y278.779 E1.33343
G1 X266.759 Y278.779 E.01216
G1 X266.759 Y221.683 E1.65773
G1 X266.34 Y221.264 E.0172
G1 X266.34 Y278.779 E1.6699
G1 X265.921 Y278.779 E.01216
G1 X265.921 Y221.221 E1.67113
G1 X265.502 Y221.221 E.01216
G1 X265.502 Y278.779 E1.67113
G1 X265.083 Y278.779 E.01216
G1 X265.083 Y221.221 E1.67113
G1 X264.664 Y221.221 E.01216
G1 X264.664 Y278.779 E1.67113
G1 X264.245 Y278.779 E.01216
G1 X264.245 Y221.221 E1.67113
G1 X263.826 Y221.221 E.01216
G1 X263.826 Y278.779 E1.67113
G1 X263.407 Y278.779 E.01216
G1 X263.407 Y221.221 E1.67113
G1 X262.988 Y221.221 E.01216
G1 X262.988 Y278.779 E1.67113
G1 X262.569 Y278.779 E.01216
G1 X262.569 Y221.221 E1.67113
G1 X262.15 Y221.221 E.01216
G1 X262.15 Y278.779 E1.67113
G1 X261.731 Y278.779 E.01216
G1 X261.731 Y221.221 E1.67113
G1 X261.312 Y221.221 E.01216
G1 X261.312 Y278.779 E1.67113
G1 X260.893 Y278.779 E.01216
G1 X260.893 Y221.221 E1.67113
G1 X260.474 Y221.221 E.01216
G1 X260.474 Y278.411 E1.66046
G1 X260.055 Y277.992 E.0172
G1 X260.055 Y221.221 E1.6483
G1 X259.636 Y221.221 E.01216
G1 X259.636 Y240.008 E.54545
G1 X259.217 Y240.008 E.01216
G1 X259.217 Y221.221 E.54545
G1 X258.799 Y221.221 E.01216
G1 X258.799 Y240.008 E.54545
G1 X258.38 Y240.008 E.01216
G1 X258.38 Y221.221 E.54545
G1 X257.961 Y221.221 E.01216
G1 X257.961 Y240.008 E.54545
G1 X257.542 Y240.008 E.01216
G1 X257.542 Y221.221 E.54545
G1 X257.123 Y221.221 E.01216
G1 X257.123 Y240.008 E.54545
G1 X256.704 Y240.008 E.01216
G1 X256.704 Y221.221 E.54545
G1 X256.285 Y221.221 E.01216
G1 X256.285 Y240.008 E.54545
G1 X255.866 Y240.008 E.01216
G1 X255.866 Y221.221 E.54545
G1 X255.447 Y221.221 E.01216
G1 X255.447 Y240.008 E.54545
G1 X255.028 Y240.008 E.01216
G1 X255.028 Y221.221 E.54545
G1 X254.609 Y221.221 E.01216
G1 X254.609 Y240.008 E.54545
G1 X254.19 Y240.008 E.01216
G1 X254.19 Y221.221 E.54545
G1 X253.771 Y221.221 E.01216
G1 X253.771 Y240.008 E.54545
G1 X253.352 Y240.008 E.01216
G1 X253.352 Y221.221 E.54545
G1 X252.933 Y221.221 E.01216
G1 X252.933 Y240.008 E.54545
G1 X252.514 Y240.008 E.01216
G1 X252.514 Y221.221 E.54545
G1 X252.095 Y221.221 E.01216
G1 X252.095 Y240.008 E.54545
G1 X251.676 Y240.008 E.01216
G1 X251.676 Y221.221 E.54545
G1 X251.257 Y221.221 E.01216
G1 X251.257 Y240.008 E.54545
G1 X250.838 Y240.008 E.01216
G1 X250.838 Y221.221 E.54545
G1 X250.419 Y221.221 E.01216
G1 X250.419 Y240.008 E.54545
G1 X250 Y240.008 E.01216
G1 X250 Y221.221 E.54545
G1 X249.581 Y221.221 E.01216
G1 X249.581 Y240.008 E.54545
G1 X249.162 Y240.008 E.01216
G1 X249.162 Y221.221 E.54545
G1 X248.743 Y221.221 E.01216
G1 X248.743 Y240.008 E.54545
G1 X248.324 Y240.008 E.01216
G1 X248.324 Y221.221 E.54545
G1 X247.905 Y221.221 E.01216
G1 X247.905 Y240.008 E.54545
G1 X247.486 Y240.008 E.01216
G1 X247.486 Y221.221 E.54545
G1 X247.067 Y221.221 E.01216
G1 X247.067 Y240.008 E.54545
G1 X246.648 Y240.008 E.01216
G1 X246.648 Y221.221 E.54545
G1 X246.229 Y221.221 E.01216
G1 X246.229 Y240.008 E.54545
G1 X245.81 Y240.008 E.01216
G1 X245.81 Y221.221 E.54545
G1 X245.391 Y221.221 E.01216
G1 X245.391 Y240.008 E.54545
G1 X244.972 Y240.008 E.01216
G1 X244.972 Y221.221 E.54545
G1 X244.553 Y221.221 E.01216
G1 X244.553 Y240.008 E.54545
G1 X244.134 Y240.008 E.01216
G1 X244.134 Y221.221 E.54545
G1 X243.715 Y221.221 E.01216
G1 X243.715 Y240.008 E.54545
G1 X243.296 Y240.008 E.01216
G1 X243.296 Y221.221 E.54545
G1 X242.877 Y221.221 E.01216
G1 X242.877 Y240.008 E.54545
G1 X242.458 Y240.008 E.01216
G1 X242.458 Y221.221 E.54545
G1 X242.039 Y221.221 E.01216
G1 X242.039 Y240.008 E.54545
G1 X241.62 Y240.008 E.01216
G1 X241.62 Y221.221 E.54545
G1 X241.201 Y221.221 E.01216
G1 X241.201 Y240.008 E.54545
G1 X240.783 Y240.008 E.01216
G1 X240.783 Y221.221 E.54545
G1 X240.364 Y221.221 E.01216
G1 X240.364 Y240.008 E.54545
G1 X239.945 Y240.008 E.01216
G1 X239.945 Y221.221 E.54545
G1 X239.526 Y221.221 E.01216
G1 X239.526 Y240.008 E.54545
G1 X239.107 Y240.008 E.01216
G1 X239.107 Y221.221 E.54545
G1 X238.688 Y221.221 E.01216
G1 X238.688 Y240.008 E.54545
G1 X238.269 Y240.008 E.01216
G1 X238.269 Y221.221 E.54545
G1 X237.85 Y221.221 E.01216
G1 X237.85 Y240.008 E.54545
G1 X237.431 Y240.008 E.01216
G1 X237.431 Y221.221 E.54545
G1 X237.012 Y221.221 E.01216
G1 X237.012 Y240.008 E.54545
G1 X236.593 Y240.008 E.01216
G1 X236.593 Y221.221 E.54545
G1 X236.174 Y221.221 E.01216
G1 X236.174 Y240.008 E.54545
G1 X235.755 Y240.008 E.01216
G1 X235.755 Y221.221 E.54545
G1 X235.336 Y221.221 E.01216
G1 X235.336 Y240.008 E.54545
G1 X234.917 Y240.008 E.01216
G1 X234.917 Y221.221 E.54545
G1 X234.498 Y221.221 E.01216
G1 X234.498 Y240.008 E.54545
G1 X234.079 Y240.008 E.01216
G1 X234.079 Y221.221 E.54545
G1 X233.66 Y221.221 E.01216
G1 X233.66 Y240.008 E.54545
G1 X233.241 Y240.008 E.01216
G1 X233.241 Y221.221 E.54545
G1 X232.822 Y221.221 E.01216
G1 X232.822 Y240.008 E.54545
G1 X232.403 Y240.008 E.01216
G1 X232.403 Y221.221 E.54545
G1 X231.984 Y221.221 E.01216
G1 X231.984 Y240.008 E.54545
G1 X231.565 Y240.008 E.01216
G1 X231.565 Y221.221 E.54545
G1 X231.146 Y221.221 E.01216
G1 X231.146 Y240.008 E.54545
G1 X230.727 Y240.008 E.01216
G1 X230.727 Y221.221 E.54545
G1 X230.308 Y221.221 E.01216
G1 X230.308 Y240.008 E.54545
G1 X229.889 Y240.008 E.01216
G1 X229.889 Y221.221 E.54545
G1 X229.47 Y221.221 E.01216
G1 X229.47 Y240.008 E.54545
G1 X229.051 Y240.008 E.01216
G1 X229.051 Y221.221 E.54545
G1 X228.632 Y221.221 E.01216
G1 X228.632 Y240.008 E.54545
G1 X228.213 Y240.008 E.01216
G1 X228.213 Y221.221 E.54545
G1 X227.794 Y221.221 E.01216
G1 X227.794 Y240.008 E.54545
G1 X227.375 Y240.008 E.01216
G1 X227.375 Y221.221 E.54545
G1 X226.956 Y221.221 E.01216
G1 X226.956 Y240.008 E.54545
G1 X226.537 Y240.008 E.01216
G1 X226.537 Y221.221 E.54545
G1 X226.118 Y221.221 E.01216
G1 X226.118 Y240.008 E.54545
G1 X225.699 Y240.008 E.01216
G1 X225.699 Y221.221 E.54545
G1 X225.28 Y221.221 E.01216
G1 X225.28 Y240.008 E.54545
G1 X224.861 Y240.008 E.01216
G1 X224.861 Y221.221 E.54545
G1 X224.442 Y221.221 E.01216
G1 X224.442 Y240.008 E.54545
G1 X224.023 Y240.008 E.01216
G1 X224.023 Y221.221 E.54545
G1 X223.604 Y221.221 E.01216
G1 X223.604 Y240.008 E.54545
G1 X223.185 Y240.008 E.01216
G1 X223.185 Y221.221 E.54545
G1 X222.766 Y221.221 E.01216
G1 X222.766 Y240.008 E.54545
G1 X222.348 Y240.008 E.01216
G1 X222.348 Y221.221 E.54545
G1 X222.071 Y221.221 E.00803
G1 X221.929 Y221.364 E.00585
G1 X221.929 Y239.865 E.53718
G1 X221.51 Y239.446 E.0172
G1 X221.51 Y221.543 E.51982
; stop printing object XY.stl id:0 copy 0
;LAYER_CHANGE
;Z:0.5
;HEIGHT:0.3
;BEFORE_LAYER_CHANGE
;0.5
G92 E0

G1 E-.56 F1800
;WIPE_START
G1 F2400
G1 X221.51 Y222.543 E-.24
;WIPE_END
M486 S-1
;AFTER_LAYER_CHANGE
;0.5
;_SET_FAN_SPEED_CHANGING_LAYER
M204 P800
M140 S100 ; set bed temperature
; printing object XY.stl id:0 copy 0
M204 T800
M486 S0
G1 Z.9 F4800
G1 X266.008 Y222.672 Z.9
G1 Z.5
G1 E.8 F1800
G1 F4950
G1 X266.008 Y222.543 E.0053
G1 X265.826 Y222.36 E.0106
G1 X222.543 Y222.36 E1.77774
G1 X222.36 Y222.543 E.0106
G1 X222.36 Y222.86 E.01304
G1 X266.008 Y222.86 E1.79273
G1 X266.008 Y226.738 E.15924
G1 X222.36 Y226.738 E1.79273
G1 X222.36 Y230.615 E.15924
G1 X266.008 Y230.615 E1.79273
G1 X266.008 Y233.992 E.13871
G1 X277.457 Y233.992 E.47023
G1 X277.64 Y234.174 E.0106
G1 X277.64 Y234.492 E.01304
G1 X222.36 Y234.492 E2.27046
G1 X222.36 Y238.369 E.15924
G1 X277.64 Y238.369 E2.27046
G1 X277.64 Y242.246 E.15924
G1 X261.131 Y242.246 E.67804
G1 X261.131 Y246.123 E.15924
G1 X277.64 Y246.123 E.67804
G1 X277.64 Y250 E.15924
G1 X261.131 Y250 E.67804
G1 X261.131 Y253.877 E.15924
G1 X277.64 Y253.877 E.67804
G1 X277.64 Y257.754 E.15924
G1 X261.131 Y257.754 E.67804
G1 X261.131 Y261.631 E.15924
