; HEADER_BLOCK_START
; generated by OrcaSlicer 2.3.1-alpha on 2025-09-17 at 11:35:15
; total layer number: 4
; filament_density: 1.04,1.06,1.24,1.24
; filament_diameter: 1.75,1.75,1.75,1.75
; max_z_height: 1.35
; HEADER_BLOCK_END

; THUMBNAIL_BLOCK_START

;
; THUMBNAIL_BLOCK_END

; THUMBNAIL_BLOCK_START

;
; THUMBNAIL_BLOCK_END

; external perimeters extrusion width = 0.82mm
; perimeters extrusion width = 0.82mm
; infill extrusion width = 0.85mm
; solid infill extrusion width = 0.82mm
; top infill extrusion width = 0.85mm
; support material extrusion width = 0.82mm
; first layer extrusion width = 0.92mm

; external perimeters extrusion width = 0.82mm
; perimeters extrusion width = 0.82mm
; infill extrusion width = 0.85mm
; solid infill extrusion width = 0.82mm
; top infill extrusion width = 0.85mm
; support material extrusion width = 0.82mm
; first layer extrusion width = 0.92mm

; external perimeters extrusion width = 0.82mm
; perimeters extrusion width = 0.82mm
; infill extrusion width = 0.85mm
; solid infill extrusion width = 0.82mm
; top infill extrusion width = 0.85mm
; support material extrusion width = 0.82mm
; first layer extrusion width = 0.92mm

; external perimeters extrusion width = 0.82mm
; perimeters extrusion width = 0.82mm
; infill extrusion width = 0.85mm
; solid infill extrusion width = 0.82mm
; top infill extrusion width = 0.85mm
; support material extrusion width = 0.82mm
; first layer extrusion width = 0.92mm

; EXECUTABLE_BLOCK_START
M486 S0 A"Object_1_1_id_0_copy_0"
M486 S-1
M486 S1 A"Object_1_2_id_1_copy_0"
M486 S-1
M486 S2 A"Object_1_3_id_2_copy_0"
M486 S-1
M486 S3 A"Object_1_4_id_3_copy_0"
M486 S-1
M73 P0 R15
M201 X10000 Y10000 Z2500 E10000
M203 X9000 Y9000 Z720 E18000
M204 P10000 T10000 ; sets acceleration (P, T), mm/sec^2
M566 X498.00 Y498.00 Z60.00 E498.00 ; sets the jerk limits, mm/min
G10 S240 P0 ; set nozzle temperature
G10 S240 P1 ; set nozzle temperature
;TYPE:Custom
; extruder relative mode
M83
; Start Heating the bed and chamber
M140 S120 ; Set bed temp
M141 S80
M190
M191

; Perform calibration
if (global.hvc == 1 | global.leveling == 1 | global.mesh == 1)
   M98 P"/sys/procedures/prepare-for-calibration.g" S0
   if global.hvc >= 1
       M98 P"/sys/procedures/prepare-for-calibration.g" S1
       M98 P"/sys/start-print-hvc.g"
   if global.leveling >= 1
       M98 P"/sys/start-print-leveling.g"
   if global.mesh >= 1
       M98 P"/sys/start-print-mesh.g"
 
G29 S1
; Set zero as default temperature to disable all extruders
M568 P0 S0 R0 A2
M568 P1 S0 R0 A2
M568 P2 S0 R0 A2
M568 P3 S0 R0 A2
 
; Enable extruders if used in slicing process
if true
   M568 P0 S240 R220 A2
if true
   M568 P1 S240 R0 A2
if false
   M568 P2 S220 R0 A2
if false
   M568 P3 S220 R0 A2
 
M591 D0 S0
M591 D1 S0
 
; Handle filament management
if global.multi_material_mode == false
        ; Left Extruder
	if global.tray_0_state == 2
		; Do nothing
	elif global.tray_2_state == 2 
		M563 P0 S"Left Extruder Spool 0" D0:3 H0 F0 
		M567 P0 E1.0:1.0
		M563 P2 S"Left Extruder Spool 1" D0:2 H0 F0 
		M567 P2 E1.0:1.0
		set global.drives_A_switched = true
		echo "Drives switched"
	elif global.tray_0_state == 1 & true
		M1101 P0 S1
	elif global.tray_2_state == 1 
                M98 P"/sys/machine-specific/go-to-cleaning-location.g"
                M98 P"/sys/machine-specific/clean.g"
		M1101 P2 S1
                M563 P0 S"Left Extruder Spool 0" D0:3 H0 F0 
		M567 P0 E1.0:1.0
		M563 P2 S"Left Extruder Spool 1" D0:2 H0 F0 
		M567 P2 E1.0:1.0
		set global.drives_A_switched = true
		echo "Drives switched"

        ; Right Extruder
	if global.tray_1_state == 2
	        ; Do nothing
	elif global.tray_3_state == 2
		M563 P1 S"Right Extruder Spool 0" D1:5 H1 F1 
		M567 P1 E1.0:1.0
		M563 P3 S"Right Extruder Spool 1" D1:4 H1 F1 
		M567 P3 E1.0:1.0
		set global.drives_B_switched = true
		echo "Drives switched"
	elif global.tray_1_state == 1 & true
		M1101 P1 S1
	elif global.tray_3_state == 1
                M98 P"/sys/machine-specific/go-to-cleaning-location.g"
                M98 P"/sys/machine-specific/clean.g"
		M1101 P3 S1
                M563 P1 S"Right Extruder Spool 0" D1:5 H1 F1 
		M567 P1 E1.0:1.0
		M563 P3 S"Right Extruder Spool 1" D1:4 H1 F1 
		M567 P3 E1.0:1.0
		set global.drives_B_switched = true
		echo "Drives switched"
M591 D0 S1
M591 D1 S1

; Home XY 
G28 XY
;if global.homeZ == 1
;   G28 Z
 
; Enable extruders if used in slicing process
if true
   M568 P0 S240 R220 A2
if true
   M568 P1 S240 R0 A2
if false
   M568 P2 S220 R0 A2
if false
   M568 P3 S220 R0 A2
 
; Apply extruder z offset
M98 P"/sys/startup-z-offset.g"
M98 P"/sys/startup-xy-offset.g"
M98 P"/sys/procedures/copy-offsets.g"
;M98 P"/sys/t0-zoffset.g"
;M98 P"/sys/t1-zoffset.g"
 
; Configure Pressure advance
M572 D0 S0.062
M572 D1 S0.02
M572 D2 S0.02
M572 D3 S0.02
 
; Select initial tool
T1
; Absolute positioning
G90
 
; Go to (0,0) and start heating up tools
G1 X0 Y0 Z2 F2000
M190 S120 P0
M116 P1
G1 X10 Y-7 Z0.3 F1000.0 ; go outside print area
G92 E0.0
G1 Z0.2 E8 ; Purge Bubble
G1 X360.0 E54.0  F1000.0 ; intro line
G92 E0.0
 
; Enable Drives in Closed Loop Mode
M569 P30.0 S0 D4
M569 P40.0 S1 D4
M569 P41.0 S1 D4
G90
G21
M83 ; use relative distances for extrusion
T1
; Filament gcode
G1 Z.3 F6000
M106 S0
;LAYER_CHANGE
;Z:0.3
;HEIGHT:0.3
;BEFORE_LAYER_CHANGE
;0.3
G92 E0

;AFTER_LAYER_CHANGE
;0.3
;_SET_FAN_SPEED_CHANGING_LAYER
M204 P1000
M205 X8 Y8
M204 T1000
G1 E-.8 F1800
G1 Z.7 F6000
M73 P2 R15
G1 X203.148 Y27.814
G1 Z.7
G1 Z.3
G1 E.8 F1800
;TYPE:Skirt
;WIDTH:0.92
G1 F2019.428
G1 X204.05 Y26.912 E.13615
G1 X205.498 Y26.216 E.17152
G1 X234.799 Y22.96 E3.14613
G1 X250.389 Y22.96 E1.66374
G1 X279.69 Y26.216 E3.14613
G1 X281.136 Y26.909 E.17114
G1 X301.051 Y46.765 E3.00112
G1 X301.747 Y48.214 E.17152
G1 X305.003 Y77.514 E3.14613
G1 X305.017 Y92.836 E1.63513
G1 X301.747 Y122.405 E3.17474
G1 X301.051 Y123.853 E.17152
G1 X300.149 Y124.756 E.13615
G1 X298.432 Y125.467 E.1983
M73 P3 R15
G1 X273.686 Y125.467 E2.64086
G1 X272.603 Y125.212 E.11864
G1 X189.605 Y83.882 E9.89475
G1 X188.596 Y82.942 E.14719
G1 X188.26 Y81.709 E.13641
G1 X188.26 Y74.724 E.74542
G1 X188.371 Y73.998 E.07845
G1 X202.548 Y28.804 E5.05466
G1 X203.117 Y27.865 E.11713
G1 E-.56 F1800
;WIPE_START
G1 F2019.428
G1 X203.816 Y27.151 E-.24
;WIPE_END
G1 Z.7 F6000
G1 X194.18 Y78.217 Z.7
G1 Z.3
G1 E.8 F1800
;HEIGHT:0.3
;TYPE:Prime tower
;WIDTH:0.75
G1  X252.680 Y78.217 
G1  X253.430 Y77.467  
G1  Y78.967  E0.1283 F1200
G1  X193.430  E5.1309
G1  Y77.467  E0.1283
G1  X253.430  E5.1309
; WIPE_TOWER_BRIM_START
G1  X254.116 Y76.781  
M73 P4 R15
G1  Y79.653  E0.2455
G1  X192.744  E5.2481
G1  Y76.781  E0.2455
G1  X254.116  E5.2481
G1  X254.801 Y76.096  
G1  Y80.338  E0.3628
G1  X192.059  E5.3654
M73 P5 R15
G1  Y76.096  E0.3628
G1  X254.801  E5.3654
G1  X255.487 Y75.410  
M73 P5 R14
G1  Y81.024  E0.4801
G1  X191.373  E5.4826
G1  Y75.410  E0.4801
G1  X255.487  E5.4826
M73 P6 R14
G1  X256.172 Y74.725  
G1  Y81.709  E0.5973
G1  X190.688  E5.5999
G1  Y74.725  E0.5973
G1  X256.172  E5.5999
; WIPE_TOWER_BRIM_END

; printing object Object_1_3 id:2 copy 0
G1 E-.56 F1800
M73 P7 R14
;WIPE_START
G1 F2019.428
G1 X255.172 Y74.724 E-.24
;WIPE_END
M486 S2
G1 Z.7 F6000
G1 X279.99 Y93.342 Z.7
G1 Z.3
G1 E.8 F1800
;TYPE:Support
;WIDTH:0.92
;HEIGHT:0.3
G1 F1200
G1 X279.99 Y93.865 E.0558
G1 X298.564 Y93.865 E1.98213
G1 X298.564 Y94.816 E.10146
G1 X279.99 Y94.816 E1.98213
G1 X279.99 Y95.767 E.10146
G1 X298.564 Y95.767 E1.98213
G1 X298.564 Y96.717 E.10146
G1 X279.99 Y96.717 E1.98213
G1 X279.99 Y97.668 E.10146
G1 X298.564 Y97.668 E1.98213
G1 X298.564 Y98.619 E.10146
G1 X279.99 Y98.619 E1.98213
G1 X279.99 Y99.569 E.10146
M73 P8 R14
G1 X298.564 Y99.569 E1.98213
G1 X298.564 Y100.52 E.10146
G1 X279.99 Y100.52 E1.98213
G1 X279.99 Y101.471 E.10146
G1 X298.564 Y101.471 E1.98213
G1 X298.564 Y102.422 E.10146
G1 X279.99 Y102.422 E1.98213
G1 X279.99 Y103.372 E.10146
G1 X298.564 Y103.372 E1.98213
G1 X298.564 Y104.323 E.10146
G1 X279.99 Y104.323 E1.98213
G1 X279.99 Y105.274 E.10146
G1 X298.564 Y105.274 E1.98213
G1 X298.564 Y106.224 E.10146
G1 X279.99 Y106.224 E1.98213
G1 X279.99 Y107.175 E.10146
G1 X298.564 Y107.175 E1.98213
G1 X298.564 Y108.126 E.10146
M73 P9 R14
G1 X279.99 Y108.126 E1.98213
G1 X279.99 Y109.076 E.10146
G1 X298.564 Y109.076 E1.98213
G1 X298.564 Y110.027 E.10146
G1 X279.99 Y110.027 E1.98213
G1 X279.99 Y110.978 E.10146
G1 X298.564 Y110.978 E1.98213
G1 X298.564 Y111.928 E.10146
G1 X279.99 Y111.928 E1.98213
G1 X279.99 Y112.879 E.10146
G1 X298.564 Y112.879 E1.98213
G1 X298.564 Y113.83 E.10146
G1 X279.99 Y113.83 E1.98213
G1 X279.99 Y114.78 E.10146
G1 X298.564 Y114.78 E1.98213
G1 X298.564 Y115.731 E.10146
G1 X279.99 Y115.731 E1.98213
G1 X279.99 Y116.682 E.10146
G1 X298.564 Y116.682 E1.98213
G1 X298.564 Y117.633 E.10146
M73 P10 R14
G1 X279.99 Y117.633 E1.98213
G1 X280.011 Y118.583 E.10148
G1 X298.564 Y118.583 E1.97987
G1 X298.564 Y119.534 E.10146
G1 X286.502 Y119.534 E1.28727
G1 X286.502 Y120.485 E.10146
G1 X298.564 Y120.485 E1.28727
G1 X298.564 Y121.435 E.10146
G1 X286.502 Y121.435 E1.28727
G1 X286.502 Y121.818 E.04081
G1 X286.953 Y122.269 E.06807
G1 X298.113 Y122.269 E1.191
G1 X298.532 Y121.85 E.06322
G1 E-.56 F1800
;WIPE_START
G1 F1200
G1 X298.113 Y122.269 E-.14219
G1 X297.705 Y122.269 E-.09781
;WIPE_END
G1 Z.7 F6000
G1 X301.422 Y92.915 Z.7
G1 Z.3
G1 E.8 F1800
G1 F1200
G1 X279.99 Y92.915 E2.28714
G1 X279.99 Y91.964 E.10146
G1 X301.819 Y91.964 E2.32956
G1 X301.819 Y91.013 E.10146
G1 X279.99 Y91.013 E2.32956
G1 X279.99 Y90.063 E.10146
G1 X301.819 Y90.063 E2.32956
G1 X301.819 Y89.112 E.10146
M73 P11 R14
G1 X279.99 Y89.112 E2.32956
G1 X279.99 Y88.161 E.10146
G1 X301.819 Y88.161 E2.32956
G1 X301.819 Y87.211 E.10146
G1 X279.99 Y87.211 E2.32956
G1 X279.99 Y86.26 E.10146
G1 X301.819 Y86.26 E2.32956
G1 X301.819 Y85.309 E.10146
G1 X279.99 Y85.309 E2.32956
G1 X279.99 Y84.358 E.10146
G1 X301.819 Y84.358 E2.32956
G1 X301.819 Y83.408 E.10146
G1 X279.99 Y83.408 E2.32956
G1 X279.99 Y82.457 E.10146
M73 P11 R13
G1 X301.819 Y82.457 E2.32956
G1 X301.819 Y81.506 E.10146
M73 P12 R13
G1 X279.99 Y81.506 E2.32956
G1 X279.99 Y80.556 E.10146
G1 X301.819 Y80.556 E2.32956
G1 X301.819 Y79.605 E.10146
G1 X279.99 Y79.605 E2.32956
G1 X279.99 Y78.654 E.10146
G1 X301.819 Y78.654 E2.32956
G1 X301.819 Y78.101 E.05903
G1 X301.422 Y77.704 E.06
G1 X279.99 Y77.704 E2.28714
G1 X279.99 Y76.753 E.10146
G1 X298.564 Y76.753 E1.98213
G1 X298.564 Y75.802 E.10146
G1 X279.99 Y75.802 E1.98213
G1 X279.99 Y74.852 E.10146
G1 X298.564 Y74.852 E1.98213
G1 X298.564 Y73.901 E.10146
G1 X279.99 Y73.901 E1.98213
G1 X279.99 Y72.95 E.10146
M73 P13 R13
G1 X298.564 Y72.95 E1.98213
G1 X298.564 Y72 E.10146
G1 X279.99 Y72 E1.98213
G1 X279.99 Y71.049 E.10146
G1 X298.564 Y71.049 E1.98213
G1 X298.564 Y70.098 E.10146
G1 X279.99 Y70.098 E1.98213
G1 X279.99 Y69.147 E.10146
G1 X298.564 Y69.147 E1.98213
G1 X298.564 Y68.197 E.10146
G1 X279.99 Y68.197 E1.98213
G1 X279.99 Y67.246 E.10146
G1 X298.564 Y67.246 E1.98213
G1 X298.564 Y66.295 E.10146
G1 X279.99 Y66.295 E1.98213
G1 X279.99 Y65.345 E.10146
G1 X298.564 Y65.345 E1.98213
G1 X298.564 Y64.394 E.10146
G1 X279.99 Y64.394 E1.98213
M73 P14 R13
G1 X279.99 Y63.443 E.10146
G1 X298.564 Y63.443 E1.98213
G1 X298.564 Y62.493 E.10146
G1 X279.99 Y62.493 E1.98213
G1 X279.99 Y61.542 E.10146
G1 X298.564 Y61.542 E1.98213
G1 X298.564 Y60.591 E.10146
G1 X279.99 Y60.591 E1.98213
G1 X279.99 Y59.641 E.10146
G1 X298.564 Y59.641 E1.98213
G1 X298.564 Y58.69 E.10146
G1 X279.99 Y58.69 E1.98213
G1 X279.99 Y57.739 E.10146
G1 X298.564 Y57.739 E1.98213
G1 X298.564 Y56.789 E.10146
G1 X279.99 Y56.789 E1.98213
G1 X279.99 Y55.838 E.10146
G1 X298.564 Y55.838 E1.98213
G1 X298.564 Y54.887 E.10146
M73 P15 R13
G1 X279.99 Y54.887 E1.98213
G1 X279.99 Y53.936 E.10146
G1 X298.564 Y53.936 E1.98213
G1 X298.564 Y52.986 E.10146
G1 X279.99 Y52.986 E1.98213
G1 X280.011 Y52.035 E.10148
G1 X298.564 Y52.035 E1.97987
G1 X298.564 Y51.084 E.10146
G1 X286.502 Y51.084 E1.28727
G1 X286.502 Y50.134 E.10146
G1 X298.564 Y50.134 E1.28727
G1 X298.564 Y49.183 E.10146
G1 X286.502 Y49.183 E1.28727
G1 X286.502 Y48.801 E.04081
G1 X286.953 Y48.35 E.06807
G1 X298.113 Y48.35 E1.191
G1 X298.532 Y48.769 E.06322
G1 X299.243 Y48.391 F6000
G1 F1200
G1 X298.432 Y47.58 E.12245
G1 X286.634 Y47.58 E1.25908
G1 X285.731 Y48.482 E.13615
G1 X285.731 Y50.835 E.25116
G1 X280.122 Y50.835 E.59859
G1 X279.22 Y51.737 E.13615
G1 X279.22 Y118.881 E7.16542
G1 X280.122 Y119.783 E.13615
G1 X285.731 Y119.783 E.59859
G1 X285.731 Y122.137 E.25116
M73 P16 R13
G1 X286.634 Y123.039 E.13615
G1 X298.432 Y123.039 E1.25908
G1 X299.334 Y122.137 E.13615
G1 X299.334 Y93.738 E3.03062
G1 X301.687 Y93.738 E.25116
G1 X302.59 Y92.836 E.13615
G1 X302.59 Y77.782 E1.60651
G1 X301.687 Y76.88 E.13615
G1 X299.334 Y76.88 E.25116
G1 X299.334 Y48.482 E3.03062
G1 E-.56 F1800
;WIPE_START
G1 F1200
G1 X299.334 Y49.482 E-.24
;WIPE_END
G1 Z.7 F6000
G1 X286.502 Y51.605 Z.7
G1 Z.3
G1 E.8 F1800
G1 F1200
G1 X280.933 Y51.605 E.59423
; stop printing object Object_1_3 id:2 copy 0
; printing object Object_1_4 id:3 copy 0
G1 E-.56 F1800
;WIPE_START
G1 F1200
G1 X281.933 Y51.605 E-.24
;WIPE_END
M486 S-1
M486 S3
G1 Z.7 F6000
G1 X273.553 Y51.512 Z.7
G1 Z.3
G1 E.8 F1800
G1 F1200
G1 X273.553 Y52.035 E.0558
G1 X292.127 Y52.056 E1.98213
G1 X292.127 Y52.986 E.0992
G1 X273.553 Y52.986 E1.98213
G1 X273.553 Y53.936 E.10146
M73 P17 R13
G1 X292.127 Y53.936 E1.98213
G1 X292.127 Y54.887 E.10146
G1 X273.553 Y54.887 E1.98213
G1 X273.553 Y55.838 E.10146
G1 X292.127 Y55.838 E1.98213
G1 X292.127 Y56.789 E.10146
G1 X273.553 Y56.789 E1.98213
G1 X273.553 Y57.739 E.10146
G1 X292.127 Y57.739 E1.98213
G1 X292.127 Y58.69 E.10146
G1 X273.553 Y58.69 E1.98213
G1 X273.553 Y59.641 E.10146
G1 X292.127 Y59.641 E1.98213
G1 X292.127 Y60.591 E.10146
G1 X273.553 Y60.591 E1.98213
G1 X273.553 Y61.542 E.10146
G1 X292.127 Y61.542 E1.98213
G1 X292.127 Y62.493 E.10146
M73 P18 R13
G1 X273.553 Y62.493 E1.98213
G1 X273.553 Y63.443 E.10146
G1 X292.127 Y63.443 E1.98213
G1 X292.127 Y64.394 E.10146
M73 P18 R12
G1 X273.553 Y64.394 E1.98213
G1 X273.553 Y65.345 E.10146
G1 X292.127 Y65.345 E1.98213
G1 X292.127 Y66.295 E.10146
G1 X273.553 Y66.295 E1.98213
G1 X273.553 Y67.246 E.10146
G1 X292.127 Y67.246 E1.98213
G1 X292.127 Y68.197 E.10146
G1 X273.553 Y68.197 E1.98213
G1 X273.553 Y69.147 E.10146
G1 X292.127 Y69.147 E1.98213
G1 X292.127 Y70.098 E.10146
G1 X273.553 Y70.098 E1.98213
G1 X273.554 Y71.049 E.10146
G1 X292.127 Y71.049 E1.98213
G1 X292.127 Y72 E.10146
M73 P19 R12
G1 X273.554 Y72 E1.98213
G1 X273.554 Y72.95 E.10146
G1 X292.127 Y72.95 E1.98213
G1 X292.127 Y73.901 E.10146
G1 X273.553 Y73.901 E1.98213
G1 X273.553 Y74.852 E.10146
G1 X292.127 Y74.852 E1.98213
G1 X292.127 Y75.802 E.10146
G1 X273.553 Y75.802 E1.98213
G1 X273.553 Y76.753 E.10146
G1 X292.127 Y76.753 E1.98213
G1 X292.127 Y77.704 E.10146
G1 X270.695 Y77.704 E2.28714
G1 X270.298 Y78.101 E.06
G1 X270.298 Y78.654 E.05903
G1 X292.127 Y78.654 E2.32956
G1 X292.127 Y79.605 E.10146
G1 X270.298 Y79.605 E2.32956
G1 X270.298 Y80.556 E.10146
M73 P20 R12
G1 X292.127 Y80.556 E2.32956
G1 X292.127 Y81.506 E.10146
G1 X270.298 Y81.506 E2.32956
G1 X270.298 Y82.457 E.10146
G1 X292.127 Y82.457 E2.32956
G1 X292.127 Y83.408 E.10146
G1 X270.298 Y83.408 E2.32956
G1 X270.298 Y84.358 E.10146
G1 X292.127 Y84.358 E2.32956
G1 X292.127 Y85.309 E.10146
G1 X270.298 Y85.309 E2.32956
G1 X270.298 Y86.26 E.10146
G1 X292.127 Y86.26 E2.32956
G1 X292.127 Y87.211 E.10146
G1 X270.298 Y87.211 E2.32956
G1 X270.298 Y88.161 E.10146
G1 X292.127 Y88.161 E2.32956
G1 X292.127 Y89.112 E.10146
M73 P21 R12
G1 X270.298 Y89.112 E2.32956
G1 X270.298 Y90.063 E.10146
G1 X292.127 Y90.063 E2.32956
G1 X292.127 Y91.013 E.10146
G1 X270.298 Y91.013 E2.32956
G1 X270.298 Y91.964 E.10146
G1 X292.127 Y91.964 E2.32956
G1 X292.127 Y92.915 E.10146
G1 X270.695 Y92.915 E2.28714
G1 E-.56 F1800
;WIPE_START
G1 F1200
G1 X271.695 Y92.915 E-.24
;WIPE_END
G1 Z.7 F6000
G1 X273.553 Y93.865 Z.7
G1 Z.3
G1 E.8 F1800
G1 F1200
G1 X292.127 Y93.865 E1.98213
G1 X292.127 Y94.816 E.10146
G1 X273.553 Y94.816 E1.98213
G1 X273.553 Y95.767 E.10146
